;FLAVOR:Marlin
;TIME:852
;Filament used: 0.477682m
;Layer height: 0.175
;Generated with Cura_SteamEngine 3.6.0
M140 S65
M105
M190 S65
M104 S205
M105
M109 S205
M82 ;absolute extrusion mode
G21;(metric values)
G90;(absolute positioning)
M82;(set extruder to absolute mode)
M107;(start with the fan off)
G28;(Home the printer)
G92 E0;(Reset the extruder to 0)
G0 Z5 E5 F500;(Move up and prime the nozzle)
G0 X-1 Z0;(Move outside the printable area)
G1 Y60 E8 F500;(Draw a priming/wiping line to the rear)
G1 X-1;(Move a little closer to the print area)
G1 Y10 E16 F500;(draw more priming/wiping)
G1 E15 F250;(Small retract)
G92 E0;(Zero the extruder)
G92 E0
G1 F2400 E-2.5
;LAYER_COUNT:94
;LAYER:0
M107
G0 F4320 X54.522 Y18.445 Z0.263
;TYPE:SKIRT
G1 F2400 E0
G1 F1800 X54.793 Y17.869 E0.02436
G1 X55.134 Y17.331 E0.04874
G1 X55.54 Y16.84 E0.07312
G1 X56.004 Y16.404 E0.09749
G1 X56.519 Y16.029 E0.12187
G1 X57.076 Y15.722 E0.14621
G1 X57.668 Y15.487 E0.17058
G1 X58.285 Y15.328 E0.19497
G1 X58.917 Y15.247 E0.21935
G1 X59.241 Y15.237 E0.23176
G1 X60.765 Y15.237 E0.29008
G1 X61.401 Y15.277 E0.31447
G1 X62.026 Y15.396 E0.33882
G1 X62.632 Y15.593 E0.3632
G1 X63.208 Y15.864 E0.38756
G1 X63.746 Y16.205 E0.41194
G1 X64.237 Y16.611 E0.43632
G1 X64.673 Y17.075 E0.46069
G1 X65.048 Y17.59 E0.48507
G1 X65.355 Y18.147 E0.50941
G1 X65.59 Y18.739 E0.53379
G1 X65.749 Y19.356 E0.55817
G1 X65.83 Y19.988 E0.58255
G1 X65.84 Y20.312 E0.59496
G1 X65.84 Y99.687 E3.63264
G1 X65.8 Y100.323 E3.65702
G1 X65.681 Y100.948 E3.68137
G1 X65.484 Y101.554 E3.70576
G1 X65.213 Y102.13 E3.73012
G1 X64.872 Y102.668 E3.7545
G1 X64.466 Y103.159 E3.77888
G1 X64.002 Y103.595 E3.80324
G1 X63.487 Y103.97 E3.82763
G1 X62.93 Y104.277 E3.85197
G1 X62.338 Y104.512 E3.87634
G1 X61.721 Y104.671 E3.90072
G1 X61.089 Y104.752 E3.92511
G1 X60.768 Y104.762 E3.9374
G1 X59.244 Y104.763 E3.99572
G1 X58.609 Y104.723 E4.02007
G1 X57.983 Y104.605 E4.04445
G1 X57.377 Y104.408 E4.06884
G1 X56.801 Y104.138 E4.09318
G1 X56.263 Y103.797 E4.11756
G1 X55.771 Y103.392 E4.14195
G1 X55.335 Y102.928 E4.16631
G1 X54.96 Y102.413 E4.19069
G1 X54.652 Y101.856 E4.21505
G1 X54.417 Y101.264 E4.23943
G1 X54.257 Y100.647 E4.26382
G1 X54.177 Y100.015 E4.2882
G1 X54.166 Y99.688 E4.30072
G1 X54.166 Y20.312 E7.33844
G1 X54.206 Y19.676 E7.36283
G1 X54.315 Y19.107 E7.385
G0 F1620 X54.325 Y19.051
G0 X54.522 Y18.445
G0 F4320 X54.872 Y18.514
G1 F2400 E7.41156
G1 F1800 X55.142 Y17.962 E7.43507
G1 X55.482 Y17.45 E7.45859
G1 X55.885 Y16.986 E7.48211
G1 X56.345 Y16.579 E7.50562
G1 X56.854 Y16.234 E7.52915
G1 X57.403 Y15.959 E7.55265
G1 X57.984 Y15.757 E7.57619
G1 X58.585 Y15.633 E7.59968
G1 X59.241 Y15.587 E7.62484
G1 X60.765 Y15.587 E7.68317
G1 X61.378 Y15.627 E7.70667
G1 X61.981 Y15.746 E7.7302
G1 X62.563 Y15.943 E7.75371
G1 X63.115 Y16.213 E7.77723
G1 X63.627 Y16.553 E7.80075
G1 X64.091 Y16.956 E7.82427
G1 X64.498 Y17.416 E7.84777
G1 X64.843 Y17.925 E7.87131
G1 X65.118 Y18.474 E7.89481
G1 X65.32 Y19.055 E7.91835
G1 X65.444 Y19.656 E7.94183
G1 X65.49 Y20.312 E7.967
G1 X65.49 Y99.687 E11.00467
G1 X65.45 Y100.3 E11.02818
G1 X65.331 Y100.903 E11.05171
G1 X65.134 Y101.485 E11.07522
G1 X64.864 Y102.037 E11.09874
G1 X64.524 Y102.549 E11.12226
G1 X64.121 Y103.013 E11.14578
G1 X63.661 Y103.42 E11.16928
G1 X63.152 Y103.765 E11.19282
G1 X62.603 Y104.04 E11.21631
G1 X62.022 Y104.242 E11.23985
G1 X61.421 Y104.366 E11.26334
G1 X60.768 Y104.412 E11.28839
G1 X59.244 Y104.413 E11.34671
G1 X58.631 Y104.373 E11.37022
G1 X58.028 Y104.255 E11.39374
G1 X57.446 Y104.059 E11.41724
G1 X56.894 Y103.789 E11.44076
G1 X56.381 Y103.449 E11.46431
G1 X55.917 Y103.046 E11.48783
G1 X55.51 Y102.587 E11.51131
G1 X55.165 Y102.078 E11.53484
G1 X54.889 Y101.529 E11.55836
G1 X54.687 Y100.948 E11.5819
G1 X54.562 Y100.347 E11.60539
G1 X54.516 Y99.688 E11.63067
G1 X54.516 Y20.312 E14.66838
G1 X54.556 Y19.699 E14.69189
G1 X54.66 Y19.174 E14.71238
G0 F1620 X54.675 Y19.096
G0 X54.872 Y18.514
G0 F4320 X55.221 Y18.585
G1 F2400 E14.73893
G1 F1800 X55.491 Y18.059 E14.76156
G1 X55.829 Y17.574 E14.78419
G1 X56.229 Y17.139 E14.8068
G1 X56.685 Y16.762 E14.82944
G1 X57.187 Y16.449 E14.85208
G1 X57.726 Y16.208 E14.87468
G1 X58.294 Y16.041 E14.89734
G1 X58.878 Y15.952 E14.91994
G1 X59.241 Y15.937 E14.93385
G1 X60.765 Y15.937 E14.99217
G1 X61.355 Y15.977 E15.0148
G1 X61.934 Y16.096 E15.03742
G1 X62.492 Y16.292 E15.06006
G1 X63.018 Y16.562 E15.08269
G1 X63.503 Y16.9 E15.10531
G1 X63.938 Y17.3 E15.12792
G1 X64.315 Y17.756 E15.15057
G1 X64.628 Y18.258 E15.17321
G1 X64.869 Y18.797 E15.1958
G1 X65.036 Y19.365 E15.21846
G1 X65.125 Y19.949 E15.24107
G1 X65.14 Y20.312 E15.25497
G1 X65.14 Y99.687 E18.29265
G1 X65.1 Y100.277 E18.31528
G1 X64.981 Y100.856 E18.3379
G1 X64.785 Y101.414 E18.36053
G1 X64.515 Y101.94 E18.38316
G1 X64.177 Y102.425 E18.40579
G1 X63.777 Y102.86 E18.4284
G1 X63.321 Y103.237 E18.45104
G1 X62.819 Y103.55 E18.47368
G1 X62.28 Y103.791 E18.49628
G1 X61.712 Y103.958 E18.51894
G1 X61.128 Y104.047 E18.54154
G1 X60.768 Y104.062 E18.55533
G1 X59.244 Y104.063 E18.61366
G1 X58.654 Y104.023 E18.63629
G1 X58.075 Y103.905 E18.6589
G1 X57.517 Y103.709 E18.68154
G1 X56.99 Y103.44 E18.70418
G1 X56.505 Y103.102 E18.7268
G1 X56.07 Y102.702 E18.74942
G1 X55.692 Y102.247 E18.77206
G1 X55.38 Y101.745 E18.79468
G1 X55.138 Y101.205 E18.81732
G1 X54.97 Y100.638 E18.83995
G1 X54.881 Y100.054 E18.86256
G1 X54.866 Y99.688 E18.87658
G1 X54.866 Y20.312 E21.9143
G1 X54.906 Y19.722 E21.93693
G1 X55.005 Y19.243 E21.95565
G0 F1620 X55.025 Y19.143
G0 X55.221 Y18.585
G0 F4320 X55.571 Y18.66
G1 F2400 E21.9822
G1 F1800 X55.839 Y18.16 E22.00392
G1 X56.176 Y17.704 E22.02561
G1 X56.573 Y17.299 E22.04732
G1 X57.023 Y16.953 E22.06904
G1 X57.517 Y16.675 E22.09074
G1 X58.045 Y16.469 E22.11243
G1 X58.597 Y16.339 E22.13413
G1 X59.241 Y16.287 E22.15885
G1 X60.765 Y16.287 E22.21718
G1 X61.331 Y16.327 E22.23889
G1 X61.885 Y16.446 E22.26058
G1 X62.417 Y16.642 E22.28228
G1 X62.917 Y16.91 E22.30399
G1 X63.373 Y17.247 E22.32569
G1 X63.778 Y17.644 E22.34739
G1 X64.124 Y18.094 E22.36911
G1 X64.402 Y18.588 E22.39081
G1 X64.608 Y19.116 E22.4125
G1 X64.738 Y19.668 E22.4342
G1 X64.79 Y20.312 E22.45893
G1 X64.79 Y99.687 E25.4966
G1 X64.75 Y100.253 E25.51832
G1 X64.631 Y100.807 E25.54
G1 X64.435 Y101.339 E25.5617
G1 X64.167 Y101.839 E25.58341
G1 X63.83 Y102.295 E25.60511
G1 X63.433 Y102.7 E25.62681
G1 X62.983 Y103.046 E25.64854
G1 X62.489 Y103.324 E25.67023
G1 X61.961 Y103.53 E25.69192
G1 X61.409 Y103.66 E25.71362
G1 X60.768 Y103.712 E25.73823
G1 X59.244 Y103.713 E25.79656
G1 X58.678 Y103.673 E25.81827
G1 X58.123 Y103.555 E25.83999
G1 X57.591 Y103.359 E25.86168
G1 X57.091 Y103.091 E25.8834
G1 X56.635 Y102.755 E25.90507
G1 X56.229 Y102.358 E25.9268
G1 X55.884 Y101.909 E25.94847
G1 X55.605 Y101.415 E25.97019
G1 X55.399 Y100.887 E25.99188
G1 X55.268 Y100.335 E26.01359
G1 X55.216 Y99.688 E26.03843
G1 X55.216 Y20.312 E29.07614
G1 X55.256 Y19.746 E29.09786
G1 X55.349 Y19.317 E29.11466
G0 F1620 X55.375 Y19.192
G0 X55.571 Y18.66
G0 F4320 X55.92 Y18.738
G1 F2400 E29.14122
G1 F1800 X56.188 Y18.266 E29.16199
G1 X56.522 Y17.84 E29.1827
G1 X56.915 Y17.467 E29.20344
G1 X57.359 Y17.156 E29.22419
G1 X57.843 Y16.913 E29.24491
G1 X58.358 Y16.745 E29.26564
G1 X58.892 Y16.654 E29.28637
G1 X59.241 Y16.637 E29.29975
G1 X60.765 Y16.637 E29.35807
G1 X61.305 Y16.677 E29.37879
G1 X61.834 Y16.796 E29.39954
G1 X62.339 Y16.991 E29.42026
G1 X62.811 Y17.259 E29.44103
G1 X63.237 Y17.593 E29.46175
G1 X63.61 Y17.986 E29.48248
G1 X63.921 Y18.43 E29.50323
G1 X64.164 Y18.914 E29.52396
G1 X64.332 Y19.429 E29.54469
G1 X64.423 Y19.963 E29.56542
G1 X64.44 Y20.312 E29.57879
G1 X64.44 Y99.687 E32.61647
G1 X64.4 Y100.227 E32.63719
G1 X64.281 Y100.756 E32.65794
G1 X64.086 Y101.261 E32.67866
G1 X63.818 Y101.733 E32.69943
G1 X63.484 Y102.159 E32.72014
G1 X63.091 Y102.532 E32.74088
G1 X62.647 Y102.843 E32.76163
G1 X62.163 Y103.086 E32.78235
G1 X61.648 Y103.254 E32.80308
G1 X61.114 Y103.345 E32.82381
G1 X60.767 Y103.362 E32.83711
G1 X59.243 Y103.363 E32.89543
G1 X58.703 Y103.323 E32.91616
G1 X58.174 Y103.205 E32.9369
G1 X57.669 Y103.01 E32.95761
G1 X57.197 Y102.742 E32.97839
G1 X56.771 Y102.409 E32.99908
G1 X56.397 Y102.016 E33.01984
G1 X56.086 Y101.572 E33.04059
G1 X55.843 Y101.088 E33.06131
G1 X55.674 Y100.573 E33.08206
G1 X55.583 Y100.039 E33.10279
G1 X55.566 Y99.688 E33.11624
G1 X55.566 Y20.312 E36.15395
G1 X55.606 Y19.772 E36.17467
G1 X55.692 Y19.392 E36.18958
G0 F1620 X55.725 Y19.243
G0 X55.92 Y18.738
G0 F4320 X56.075 Y19.297
G1 F2400 E36.21614
G1 F1800 X56.27 Y18.82 E36.23586
G1 X56.536 Y18.378 E36.25561
G1 X56.867 Y17.984 E36.2753
G1 X57.256 Y17.645 E36.29505
G1 X57.692 Y17.37 E36.31477
G1 X58.165 Y17.166 E36.33449
G1 X58.664 Y17.037 E36.35421
G1 X59.241 Y16.987 E36.37638
G1 X60.765 Y16.987 E36.4347
G1 X61.279 Y17.027 E36.45443
G1 X61.78 Y17.146 E36.47414
G1 X62.257 Y17.341 E36.49386
G1 X62.699 Y17.607 E36.5136
G1 X63.093 Y17.938 E36.53329
G1 X63.432 Y18.327 E36.55304
G1 X63.707 Y18.763 E36.57277
G1 X63.911 Y19.236 E36.59248
G1 X64.04 Y19.735 E36.61221
G1 X64.09 Y20.312 E36.63437
G1 X64.09 Y99.687 E39.67205
G1 X64.05 Y100.201 E39.69178
G1 X63.931 Y100.702 E39.71148
G1 X63.736 Y101.179 E39.7312
G1 X63.47 Y101.621 E39.75095
G1 X63.139 Y102.015 E39.77064
G1 X62.75 Y102.354 E39.79039
G1 X62.314 Y102.629 E39.81011
G1 X61.841 Y102.833 E39.82983
G1 X61.342 Y102.962 E39.84955
G1 X60.767 Y103.012 E39.87164
G1 X59.243 Y103.013 E39.92996
G1 X58.729 Y102.973 E39.94969
G1 X58.228 Y102.855 E39.96939
G1 X57.751 Y102.66 E39.98911
G1 X57.309 Y102.394 E40.00886
G1 X56.914 Y102.063 E40.02858
G1 X56.575 Y101.675 E40.0483
G1 X56.3 Y101.239 E40.06802
G1 X56.096 Y100.766 E40.08774
G1 X55.967 Y100.267 E40.10746
G1 X55.916 Y99.688 E40.12971
G1 X55.916 Y20.312 E43.16742
G1 X55.943 Y19.977 E43.18028
G0 F1620 X55.956 Y19.798
G0 X56.075 Y19.297
G0 F4320 X56.425 Y19.353
G1 F2400 E43.20684
G1 F1800 X56.619 Y18.906 E43.22549
G1 X56.884 Y18.497 E43.24414
G1 X57.212 Y18.137 E43.26278
G1 X57.594 Y17.834 E43.28144
G1 X58.021 Y17.599 E43.30009
G1 X58.48 Y17.436 E43.31873
G1 X58.96 Y17.35 E43.33739
G1 X59.241 Y17.337 E43.34816
G1 X60.765 Y17.337 E43.40648
G1 X61.251 Y17.377 E43.42514
G1 X61.724 Y17.496 E43.44381
G1 X62.171 Y17.69 E43.46246
G1 X62.58 Y17.955 E43.48111
G1 X62.94 Y18.283 E43.49975
G1 X63.243 Y18.665 E43.51841
G1 X63.478 Y19.092 E43.53706
G1 X63.641 Y19.551 E43.5557
G1 X63.727 Y20.031 E43.57436
G1 X63.74 Y20.312 E43.58513
G1 X63.74 Y99.687 E46.6228
G1 X63.7 Y100.173 E46.64147
G1 X63.581 Y100.646 E46.66013
G1 X63.387 Y101.093 E46.67878
G1 X63.122 Y101.502 E46.69743
G1 X62.794 Y101.862 E46.71607
G1 X62.412 Y102.165 E46.73473
G1 X61.985 Y102.4 E46.75338
G1 X61.526 Y102.563 E46.77202
G1 X61.046 Y102.649 E46.79068
G1 X60.767 Y102.662 E46.80137
G1 X59.243 Y102.663 E46.8597
G1 X58.757 Y102.623 E46.87836
G1 X58.284 Y102.505 E46.89702
G1 X57.837 Y102.311 E46.91566
G1 X57.428 Y102.046 E46.93431
G1 X57.067 Y101.719 E46.95295
G1 X56.764 Y101.336 E46.97164
G1 X56.529 Y100.91 E46.99026
G1 X56.365 Y100.451 E47.00892
G1 X56.279 Y99.971 E47.02758
G1 X56.266 Y99.688 E47.03842
G1 X56.266 Y20.312 E50.07614
G1 X56.289 Y20.032 E50.08689
G0 F1620 X56.306 Y19.826
G0 X56.425 Y19.353
G0 F4320 X56.774 Y19.414
G1 F2400 E50.11345
G1 F1800 X56.968 Y18.999 E50.13098
G1 X57.231 Y18.624 E50.14851
G1 X57.555 Y18.3 E50.16604
G1 X57.93 Y18.038 E50.18355
G1 X58.345 Y17.845 E50.20107
G1 X58.787 Y17.727 E50.21857
G1 X59.241 Y17.687 E50.23601
G1 X60.765 Y17.687 E50.29434
G1 X61.221 Y17.727 E50.31186
G1 X61.663 Y17.845 E50.32936
G1 X62.078 Y18.039 E50.3469
G1 X62.453 Y18.302 E50.36442
G1 X62.777 Y18.626 E50.38196
G1 X63.039 Y19.001 E50.39947
G1 X63.232 Y19.416 E50.41698
G1 X63.35 Y19.858 E50.43449
G1 X63.39 Y20.312 E50.45193
G1 X63.39 Y99.687 E53.48961
G1 X63.35 Y100.143 E53.50713
G1 X63.232 Y100.585 E53.52463
G1 X63.038 Y101 E53.54217
G1 X62.775 Y101.375 E53.5597
G1 X62.451 Y101.699 E53.57723
G1 X62.076 Y101.961 E53.59474
G1 X61.661 Y102.154 E53.61225
G1 X61.219 Y102.272 E53.62976
G1 X60.767 Y102.312 E53.64713
G1 X59.243 Y102.313 E53.70545
G1 X58.787 Y102.273 E53.72297
G1 X58.344 Y102.155 E53.74051
G1 X57.929 Y101.962 E53.75803
G1 X57.554 Y101.699 E53.77556
G1 X57.23 Y101.376 E53.79307
G1 X56.968 Y101.001 E53.81057
G1 X56.774 Y100.586 E53.8281
G1 X56.656 Y100.144 E53.84561
G1 X56.616 Y99.688 E53.86313
G1 X56.616 Y20.312 E56.90085
G1 X56.636 Y20.092 E56.9093
G0 F1620 X56.656 Y19.856
G0 X56.774 Y19.414
G0 F4320 X57.124 Y19.478
G1 F2400 E56.93586
G1 F1800 X57.317 Y19.098 E56.95217
G1 X57.577 Y18.761 E56.96846
G1 X57.895 Y18.478 E56.98475
G1 X58.261 Y18.259 E57.00107
G1 X58.661 Y18.112 E57.01738
G1 X59.241 Y18.037 E57.03976
G1 X60.765 Y18.037 E57.09809
G1 X61.189 Y18.077 E57.11438
G1 X61.599 Y18.195 E57.13071
G1 X61.979 Y18.388 E57.14702
G1 X62.316 Y18.648 E57.16331
G1 X62.599 Y18.966 E57.1796
G1 X62.818 Y19.332 E57.19593
G1 X62.965 Y19.732 E57.21224
G1 X63.04 Y20.312 E57.23462
G1 X63.04 Y99.687 E60.27229
G1 X63 Y100.111 E60.28859
G1 X62.882 Y100.521 E60.30492
G1 X62.689 Y100.901 E60.32123
G1 X62.429 Y101.238 E60.33752
G1 X62.111 Y101.521 E60.35381
G1 X61.745 Y101.74 E60.37013
G1 X61.345 Y101.887 E60.38644
G1 X60.766 Y101.962 E60.40879
G1 X59.242 Y101.963 E60.46711
G1 X58.818 Y101.923 E60.48341
G1 X58.409 Y101.805 E60.4997
G1 X58.028 Y101.613 E60.51603
G1 X57.691 Y101.353 E60.53232
G1 X57.407 Y101.035 E60.54863
G1 X57.188 Y100.669 E60.56495
G1 X57.041 Y100.269 E60.58126
G1 X56.966 Y99.688 E60.60368
G1 X56.966 Y20.312 E63.6414
G1 X56.981 Y20.155 E63.64743
G0 F1620 X57.006 Y19.888
G0 X57.124 Y19.478
G0 F4320 X57.474 Y19.548
G1 F2400 E63.67399
G1 F1800 X57.665 Y19.206 E63.68898
G1 X57.922 Y18.91 E63.70399
G1 X58.233 Y18.672 E63.71897
G1 X58.586 Y18.502 E63.73397
G1 X58.966 Y18.407 E63.74896
G1 X59.241 Y18.387 E63.75951
G1 X60.765 Y18.387 E63.81783
G1 X61.155 Y18.427 E63.83284
G1 X61.529 Y18.545 E63.84785
G1 X61.871 Y18.736 E63.86284
G1 X62.167 Y18.993 E63.87784
G1 X62.405 Y19.304 E63.89283
G1 X62.575 Y19.657 E63.90782
G1 X62.67 Y20.037 E63.92281
G1 X62.69 Y20.312 E63.93336
G1 X62.69 Y99.687 E66.97104
G1 X62.65 Y100.077 E66.98604
G1 X62.532 Y100.451 E67.00105
G1 X62.341 Y100.793 E67.01604
G1 X62.084 Y101.089 E67.03104
G1 X61.773 Y101.327 E67.04603
G1 X61.42 Y101.497 E67.06103
G1 X61.04 Y101.592 E67.07602
G1 X60.766 Y101.612 E67.08653
G1 X59.242 Y101.613 E67.14485
G1 X58.852 Y101.573 E67.15986
G1 X58.479 Y101.456 E67.17482
G1 X58.136 Y101.265 E67.18984
G1 X57.84 Y101.008 E67.20484
G1 X57.602 Y100.697 E67.21983
G1 X57.431 Y100.344 E67.23484
G1 X57.336 Y99.964 E67.24983
G1 X57.316 Y99.688 E67.26042
G1 X57.316 Y20.312 E70.29814
G1 X57.326 Y20.222 E70.3016
G0 F1620 X57.356 Y19.922
G0 X57.474 Y19.548
G0 F4320 X57.823 Y19.626
G1 F2400 E70.32816
G1 F1800 X58.013 Y19.326 E70.34175
G1 X58.264 Y19.076 E70.35531
G1 X58.565 Y18.889 E70.36887
G1 X58.901 Y18.774 E70.38246
G1 X59.241 Y18.737 E70.39555
G1 X60.765 Y18.737 E70.45387
G1 X61.117 Y18.777 E70.46743
G1 X61.451 Y18.894 E70.48097
G1 X61.751 Y19.084 E70.49456
G1 X62.001 Y19.335 E70.50812
G1 X62.188 Y19.636 E70.52168
G1 X62.303 Y19.972 E70.53527
G1 X62.34 Y20.312 E70.54836
G1 X62.34 Y99.687 E73.58604
G1 X62.3 Y100.039 E73.5996
G1 X62.183 Y100.373 E73.61314
G1 X61.993 Y100.673 E73.62673
G1 X61.742 Y100.923 E73.64029
G1 X61.441 Y101.11 E73.65385
G1 X61.105 Y101.225 E73.66744
G1 X60.766 Y101.262 E73.68049
G1 X59.242 Y101.263 E73.73881
G1 X58.89 Y101.223 E73.75237
G1 X58.555 Y101.106 E73.76595
G1 X58.256 Y100.917 E73.77949
G1 X58.006 Y100.665 E73.79307
G1 X57.819 Y100.365 E73.8066
G1 X57.703 Y100.029 E73.82021
G1 X57.666 Y99.688 E73.83333
G1 X57.666 Y20.312 E76.87105
G1 X57.668 Y20.299 E76.87155
G0 F1620 X57.706 Y19.96
G0 X57.823 Y19.626
G0 F4320 X58.056 Y20.002
G1 F2400 E76.89811
G1 F1800 X58.173 Y19.712 E76.91008
G1 X58.359 Y19.462 E76.922
G1 X58.603 Y19.266 E76.93398
G1 X58.888 Y19.139 E76.94592
G1 X59.241 Y19.087 E76.95958
G1 X60.765 Y19.087 E77.0179
G1 X61.075 Y19.127 E77.02986
G1 X61.365 Y19.244 E77.04183
G1 X61.615 Y19.43 E77.05375
G1 X61.811 Y19.674 E77.06573
G1 X61.938 Y19.959 E77.07767
G1 X61.99 Y20.312 E77.09133
G1 X61.99 Y99.687 E80.129
G1 X61.95 Y99.997 E80.14097
