;FLAVOR:Marlin
;TIME:13573
;Filament used: 23.4946m
;Layer height: 0.35
;Generated with Cura_SteamEngine 3.6.0
M140 S55
M105
M190 S55
M104 S195
M105
M109 S195
M82 ;absolute extrusion mode
G21;(metric values)
G90;(absolute positioning)
M82;(set extruder to absolute mode)
M107;(start with the fan off)
G28;(Home the printer)
G92 E0;(Reset the extruder to 0)
G0 Z5 E5 F500;(Move up and prime the nozzle)
G0 X-1 Z0;(Move outside the printable area)
G1 Y60 E8 F500;(Draw a priming/wiping line to the rear)
G1 X-1;(Move a little closer to the print area)
G1 Y10 E16 F500;(draw more priming/wiping)
G1 E15 F250;(Small retract)
G92 E0;(Zero the extruder)
G92 E0
;LAYER_COUNT:201
;LAYER:0
M107
G0 F4320 X27.73 Y27.454 Z0.35
;TYPE:SKIRT
G1 F1800 X28.148 Y27.127 E0.02703
G1 X28.61 Y26.866 E0.05405
G1 X29.106 Y26.677 E0.08109
G1 X29.375 Y26.609 E0.09522
G1 X30.939 Y26.277 E0.17665
G1 X31.671 Y26.2 E0.21413
G1 X88.277 Y26.193 E3.09705
G1 X88.806 Y26.233 E3.12407
G1 X89.089 Y26.288 E3.13875
G1 X90.757 Y26.683 E3.22605
G1 X91.263 Y26.844 E3.2531
G1 X91.739 Y27.079 E3.28013
G1 X92.174 Y27.382 E3.30713
G1 X92.559 Y27.748 E3.33419
G1 X92.884 Y28.167 E3.36119
G1 X93.143 Y28.63 E3.38821
G1 X93.393 Y29.383 E3.42862
G1 X93.723 Y30.941 E3.50973
G1 X93.8 Y31.67 E3.54706
G1 X93.818 Y87.572 E6.39413
G1 X93.81 Y87.808 E6.40615
G1 X93.742 Y88.824 E6.45802
G1 X93.663 Y89.366 E6.48591
G1 X93.364 Y90.689 E6.55499
G1 X93.209 Y91.196 E6.58199
G1 X92.979 Y91.675 E6.60905
G1 X92.679 Y92.113 E6.63609
G1 X92.318 Y92.501 E6.66308
G1 X91.902 Y92.831 E6.69012
G1 X91.442 Y93.095 E6.71714
G1 X90.707 Y93.349 E6.75674
G1 X89.11 Y93.712 E6.84015
G1 X88.329 Y93.8 E6.88018
G1 X31.721 Y93.807 E9.7632
G1 X31.192 Y93.767 E9.79022
G1 X30.899 Y93.71 E9.80542
G1 X29.232 Y93.31 E9.89273
G1 X28.726 Y93.147 E9.91981
G1 X28.251 Y92.911 E9.94682
G1 X27.817 Y92.606 E9.97383
G1 X27.433 Y92.239 E10.00089
G1 X27.109 Y91.819 E10.0279
G1 X26.852 Y91.355 E10.05492
G1 X26.606 Y90.613 E10.09473
G1 X26.277 Y89.06 E10.17558
G1 X26.2 Y88.329 E10.21301
G1 X26.202 Y31.694 E13.09741
G1 X26.242 Y31.165 E13.12443
G1 X26.293 Y30.897 E13.13832
G1 X26.673 Y29.26 E13.22391
G1 X26.832 Y28.754 E13.25092
G1 X27.065 Y28.277 E13.27796
G1 X27.366 Y27.84 E13.30499
G1 X27.373 Y27.832 E13.30553
G0 F1620 X27.73 Y27.454
G0 F4320 X28.043 Y27.644
G1 F2400 E13.33201
G1 F1800 X28.451 Y27.348 E13.35768
G1 X28.9 Y27.12 E13.38333
G1 X29.448 Y26.951 E13.41254
G1 X31.012 Y26.619 E13.49396
G1 X31.671 Y26.55 E13.52771
G1 X88.277 Y26.543 E16.41063
G1 X89.009 Y26.628 E16.44816
G1 X90.677 Y27.023 E16.53546
G1 X91.156 Y27.178 E16.5611
G1 X91.605 Y27.406 E16.58675
G1 X92.012 Y27.703 E16.61241
G1 X92.367 Y28.06 E16.63805
G1 X92.661 Y28.469 E16.6637
G1 X92.887 Y28.919 E16.68935
G1 X93.051 Y29.455 E16.7179
G1 X93.381 Y31.013 E16.79901
G1 X93.45 Y31.67 E16.83265
G1 X93.468 Y87.572 E19.67972
G1 X93.461 Y87.785 E19.69057
G1 X93.393 Y88.801 E19.74243
G1 X93.322 Y89.289 E19.76755
G1 X93.023 Y90.612 E19.83662
G1 X92.873 Y91.093 E19.86229
G1 X92.65 Y91.544 E19.88791
G1 X92.357 Y91.954 E19.91357
G1 X92.004 Y92.313 E19.93922
G1 X91.598 Y92.611 E19.96487
G1 X91.15 Y92.841 E19.99051
G1 X90.63 Y93.008 E20.01833
G1 X89.033 Y93.371 E20.10174
G1 X88.329 Y93.45 E20.13782
G1 X31.721 Y93.457 E23.02084
G1 X30.98 Y93.369 E23.05884
G1 X29.313 Y92.969 E23.14615
G1 X28.834 Y92.813 E23.17181
G1 X28.386 Y92.584 E23.19743
G1 X27.98 Y92.286 E23.22308
G1 X27.626 Y91.928 E23.24872
G1 X27.333 Y91.518 E23.27439
G1 X27.109 Y91.067 E23.30004
G1 X26.948 Y90.54 E23.3281
G1 X26.619 Y88.987 E23.40895
G1 X26.55 Y88.329 E23.44265
G1 X26.552 Y31.694 E26.32704
G1 X26.634 Y30.976 E26.36385
G1 X27.014 Y29.339 E26.44944
G1 X27.167 Y28.859 E26.47509
G1 X27.393 Y28.409 E26.50074
G1 X27.679 Y28.014 E26.52558
G0 F1620 X27.688 Y28.001
G0 X28.043 Y27.644
;MESH:Corner_Cap_50mm_inside-screw_holes.stl
G0 F4320 X31.544 Y29.064
G0 X31.763 Y30.099
G0 X88.185 Y30.582
;TYPE:WALL-INNER
G1 F2400 E26.55206
G1 F1800 X89.207 Y30.803 E26.60531
G1 X89.42 Y31.812 E26.65783
G1 X89.418 Y88.185 E29.52889
G1 X89.197 Y89.207 E29.58214
G1 X88.188 Y89.42 E29.63466
G1 X31.815 Y89.418 E32.50571
G1 X30.793 Y89.197 E32.55897
G1 X30.58 Y88.188 E32.61149
G1 X30.582 Y31.815 E35.48254
G1 X30.804 Y30.791 E35.5359
G1 X31.813 Y30.58 E35.5884
G1 X87.665 Y30.582 E38.43292
G0 F1620 X88.185 Y30.582
G0 F4320 X88.222 Y30.232
G1 F2400 E38.45941
G1 F1800 X89.502 Y30.509 E38.52611
G1 X89.77 Y31.778 E38.59216
G1 X89.768 Y88.222 E41.46683
G1 X89.491 Y89.502 E41.53353
G1 X88.222 Y89.77 E41.59958
G1 X31.778 Y89.768 E44.47425
G1 X30.498 Y89.491 E44.54095
G1 X30.23 Y88.222 E44.60701
G1 X30.232 Y31.778 E47.48168
G1 X30.51 Y30.494 E47.54859
G1 X31.776 Y30.23 E47.61445
G1 X87.702 Y30.232 E50.46274
G0 F1620 X88.222 Y30.232
G0 F4320 X88.259 Y29.907
;TYPE:WALL-OUTER
G1 F2400 E50.48922
G1 F1800 X89.776 Y30.236 E50.56828
G1 X90.095 Y31.744 E50.64678
G1 X90.093 Y88.259 E53.52506
G1 X89.764 Y89.776 E53.60412
G1 X88.256 Y90.095 E53.68262
G1 X31.741 Y90.093 E56.56091
G1 X30.224 Y89.764 E56.63996
G1 X29.905 Y88.256 E56.71846
G1 X29.907 Y31.741 E59.59675
G1 X30.237 Y30.219 E59.67606
G1 X31.744 Y29.905 E59.75446
G1 X87.739 Y29.907 E62.60627
G0 F1620 X88.259 Y29.907
G0 F4320 X88.454 Y29.949
G0 X88.394 Y30.217
G0 X88.204 Y30.675
G0 X88.15 Y30.922
;TYPE:SKIN
G1 F2400 E62.63275
G1 F1800 X88.92 Y31.089 E62.67288
G1 X89.08 Y31.844 E62.71218
G1 X89.078 Y88.15 E65.57982
G1 X88.911 Y88.92 E65.61995
G1 X88.156 Y89.08 E65.65926
G1 X31.85 Y89.078 E68.5269
G1 X31.08 Y88.911 E68.56703
G1 X30.92 Y88.156 E68.60633
G1 X30.922 Y31.851 E71.47392
G1 X31.089 Y31.078 E71.5142
G1 X31.845 Y30.92 E71.55353
G1 X87.63 Y30.922 E74.39464
G0 F1620 X88.15 Y30.922
G0 F4320 X88.204 Y30.675
G0 X89.079 Y30.931
G0 X89.23 Y31.327
G0 X88.828 Y31.411
G1 F2400 E74.42112
G1 F1800 X88.596 Y31.179 E74.43783
G0 F4320 X88 Y31.078
G1 F1800 X88.922 Y32 E74.50424
G0 F4320 X88.922 Y32.495
G1 F1800 X87.505 Y31.078 E74.6063
G0 F4320 X87.01 Y31.078
G1 F1800 X88.922 Y32.99 E74.74401
G0 F4320 X88.922 Y33.485
G1 F1800 X86.515 Y31.078 E74.91738
G0 F4320 X86.02 Y31.078
G1 F1800 X88.922 Y33.98 E75.12639
G0 F4320 X88.922 Y34.474
G1 F1800 X85.525 Y31.078 E75.37103
G0 F4320 X85.031 Y31.078
G1 F1800 X88.922 Y34.969 E75.65128
G0 F4320 X88.922 Y35.464
G1 F1800 X84.536 Y31.078 E75.96718
G0 F4320 X84.041 Y31.078
G1 F1800 X88.922 Y35.959 E76.31874
G0 F4320 X88.922 Y36.454
G1 F1800 X83.546 Y31.078 E76.70595
G0 F4320 X83.051 Y31.078
G1 F1800 X88.922 Y36.949 E77.12881
G0 F4320 X88.922 Y37.444
G1 F1800 X82.556 Y31.078 E77.58732
G0 F4320 X82.061 Y31.078
G1 F1800 X88.922 Y37.939 E78.08149
G0 F4320 X88.922 Y38.434
G1 F1800 X81.566 Y31.078 E78.6113
G0 F4320 X81.071 Y31.078
G1 F1800 X88.922 Y38.929 E79.17677
G0 F4320 X88.922 Y39.424
G1 F1800 X80.576 Y31.078 E79.7779
G0 F4320 X80.081 Y31.078
G1 F1800 X88.922 Y39.919 E80.41467
G0 F4320 X88.922 Y40.414
G1 F1800 X79.586 Y31.078 E81.0871
G0 F4320 X79.091 Y31.078
G1 F1800 X88.922 Y40.909 E81.79518
G0 F4320 X88.922 Y41.404
G1 F1800 X78.596 Y31.078 E82.53892
G0 F4320 X78.101 Y31.078
G1 F1800 X88.922 Y41.899 E83.3183
G0 F4320 X88.922 Y42.394
G1 F1800 X77.606 Y31.078 E84.13334
G0 F4320 X77.111 Y31.078
G1 F1800 X88.922 Y42.889 E84.98403
G0 F4320 X88.922 Y43.384
G1 F1800 X76.616 Y31.078 E85.87037
G0 F4320 X76.121 Y31.078
G1 F1800 X88.922 Y43.879 E86.79237
G0 F4320 X88.922 Y44.374
G1 F1800 X75.626 Y31.078 E87.75002
G0 F4320 X75.131 Y31.078
G1 F1800 X88.922 Y44.869 E88.74332
G0 F4320 X88.922 Y45.364
G1 F1800 X74.636 Y31.078 E89.77227
G0 F4320 X74.141 Y31.078
G1 F1800 X88.922 Y45.859 E90.83688
G0 F4320 X88.922 Y46.354
G1 F1800 X73.646 Y31.078 E91.93714
G0 F4320 X73.151 Y31.078
G1 F1800 X88.922 Y46.849 E93.07305
G0 F4320 X88.922 Y47.344
G1 F1800 X72.656 Y31.078 E94.24461
G0 F4320 X72.161 Y31.078
G1 F1800 X88.922 Y47.839 E95.45183
G0 F4320 X88.922 Y48.334
G1 F1800 X71.666 Y31.078 E96.6947
G0 F4320 X71.171 Y31.078
G1 F1800 X88.922 Y48.829 E97.97322
G0 F4320 X88.922 Y49.324
G1 F1800 X70.676 Y31.078 E99.28739
G0 F4320 X70.181 Y31.078
G1 F1800 X88.922 Y49.819 E100.63722
G0 F4320 X88.922 Y50.314
G1 F1800 X69.686 Y31.078 E102.0227
G0 F4320 X69.191 Y31.078
G1 F1800 X88.922 Y50.809 E103.44383
G0 F4320 X88.922 Y51.304
G1 F1800 X68.696 Y31.078 E104.90061
G0 F4320 X68.201 Y31.078
G1 F1800 X88.922 Y51.799 E106.39305
G0 F4320 X88.922 Y52.294
G1 F1800 X67.706 Y31.078 E107.92114
G0 F4320 X67.211 Y31.078
G1 F1800 X88.922 Y52.789 E109.48488
G0 F4320 X88.922 Y53.284
G1 F1800 X66.716 Y31.078 E111.08427
G0 F4320 X66.221 Y31.078
G1 F1800 X88.922 Y53.779 E112.71932
G0 F4320 X88.922 Y54.273
G1 F1800 X65.726 Y31.078 E114.38998
G0 F4320 X65.232 Y31.078
G1 F1800 X88.922 Y54.768 E116.09626
G0 F4320 X88.922 Y55.263
G1 F1800 X64.737 Y31.078 E117.83819
G0 F4320 X64.242 Y31.078
G1 F1800 X88.922 Y55.758 E119.61578
G0 F4320 X88.922 Y56.253
G1 F1800 X63.747 Y31.078 E121.42901
G0 F4320 X63.252 Y31.078
G1 F1800 X88.922 Y56.748 E123.2779
G0 F4320 X88.922 Y57.243
G1 F1800 X62.757 Y31.078 E125.16245
G0 F4320 X62.262 Y31.078
G1 F1800 X88.922 Y57.738 E127.08264
G0 F4320 X88.922 Y58.233
G1 F1800 X61.767 Y31.078 E129.03849
G0 F4320 X61.272 Y31.078
G1 F1800 X88.922 Y58.728 E131.02999
G0 F4320 X88.922 Y59.223
G1 F1800 X60.777 Y31.078 E133.05714
G0 F4320 X60.282 Y31.078
G1 F1800 X88.922 Y59.718 E135.11995
G0 F4320 X88.921 Y60.212
G1 F1800 X59.786 Y31.078 E137.21837
G0 F4320 X59.291 Y31.078
G1 F1800 X88.921 Y60.707 E139.35244
G0 F4320 X88.921 Y61.202
G1 F1800 X58.796 Y31.078 E141.52217
G0 F4320 X58.301 Y31.078
G1 F1800 X88.921 Y61.697 E143.72755
G0 F4320 X88.921 Y62.192
G1 F1800 X57.806 Y31.078 E145.96858
G0 F4320 X57.311 Y31.078
G1 F1800 X88.921 Y62.687 E148.24526
G0 F4320 X88.921 Y63.182
G1 F1800 X56.816 Y31.078 E150.5576
G0 F4320 X56.321 Y31.078
G1 F1800 X88.921 Y63.677 E152.90559
G0 F4320 X88.921 Y64.172
G1 F1800 X55.826 Y31.078 E155.28923
G0 F4320 X55.331 Y31.078
G1 F1800 X88.921 Y64.667 E157.70852
G0 F4320 X88.921 Y65.162
G1 F1800 X54.836 Y31.078 E160.16347
G0 F4320 X54.341 Y31.078
G1 F1800 X88.921 Y65.657 E162.65407
G0 F4320 X88.921 Y66.152
G1 F1800 X53.846 Y31.078 E165.18032
G0 F4320 X53.351 Y31.078
G1 F1800 X88.921 Y66.647 E167.74222
G0 F4320 X88.921 Y67.142
G1 F1800 X52.856 Y31.078 E170.33978
G0 F4320 X52.361 Y31.078
G1 F1800 X88.921 Y67.637 E172.97299
G0 F4320 X88.921 Y68.132
G1 F1800 X51.866 Y31.078 E175.64185
G0 F4320 X51.372 Y31.078
G1 F1800 X88.921 Y68.627 E178.34633
G0 F4320 X88.921 Y69.122
G1 F1800 X50.877 Y31.078 E181.08646
G0 F4320 X50.382 Y31.078
G1 F1800 X88.921 Y69.617 E183.86224
G0 F4320 X88.921 Y70.112
G1 F1800 X49.887 Y31.078 E186.67368
G0 F4320 X49.392 Y31.078
G1 F1800 X88.921 Y70.607 E189.52077
G0 F4320 X88.921 Y71.102
G1 F1800 X48.897 Y31.078 E192.40351
G0 F4320 X48.402 Y31.078
G1 F1800 X88.921 Y71.597 E195.3219
G0 F4320 X88.921 Y72.092
G1 F1800 X47.907 Y31.078 E198.27595
G0 F4320 X47.412 Y31.078
G1 F1800 X88.921 Y72.587 E201.26564
G0 F4320 X88.921 Y73.082
G1 F1800 X46.917 Y31.078 E204.291
G0 F4320 X46.422 Y31.078
G1 F1800 X88.921 Y73.577 E207.352
G0 F4320 X88.921 Y74.072
G1 F1800 X45.927 Y31.078 E210.44865
G0 F4320 X45.432 Y31.078
G1 F1800 X88.921 Y74.567 E213.58096
G0 F4320 X88.921 Y75.062
G1 F1800 X44.937 Y31.078 E216.74892
G0 F4320 X44.442 Y31.078
G1 F1800 X88.921 Y75.557 E219.95254
G0 F4320 X88.921 Y76.052
G1 F1800 X43.947 Y31.078 E223.1918
G0 F4320 X43.452 Y31.078
G1 F1800 X88.921 Y76.547 E226.46672
G0 F4320 X88.921 Y77.042
G1 F1800 X42.957 Y31.078 E229.77729
G0 F4320 X42.462 Y31.078
G1 F1800 X88.921 Y77.537 E233.12352
G0 F4320 X88.921 Y78.032
G1 F1800 X41.967 Y31.078 E236.50539
G0 F4320 X41.472 Y31.078
G1 F1800 X88.921 Y78.527 E239.92292
G0 F4320 X88.921 Y79.022
G1 F1800 X40.977 Y31.078 E243.3761
G0 F4320 X40.482 Y31.078
G1 F1800 X88.921 Y79.516 E246.8649
G0 F4320 X88.921 Y80.011
G1 F1800 X39.987 Y31.078 E250.38935
G0 F4320 X39.492 Y31.078
G1 F1800 X88.921 Y80.506 E253.94945
G0 F4320 X88.921 Y81.001
G1 F1800 X38.997 Y31.078 E257.54521
G0 F4320 X38.502 Y31.078
G1 F1800 X88.921 Y81.496 E261.17662
G0 F4320 X88.921 Y81.991
G1 F1800 X38.007 Y31.078 E264.84368
G0 F4320 X37.512 Y31.078
G1 F1800 X88.921 Y82.486 E268.54639
G0 F4320 X88.921 Y82.981
G1 F1800 X37.017 Y31.078 E272.28476
G0 F4320 X36.522 Y31.078
G1 F1800 X88.921 Y83.476 E276.05877
G0 F4320 X88.921 Y83.971
G1 F1800 X36.027 Y31.078 E279.86844
G0 F4320 X35.532 Y31.078
G1 F1800 X88.921 Y84.466 E283.71377
G0 F4320 X88.921 Y84.961
G1 F1800 X35.037 Y31.078 E287.59474
G0 F4320 X34.542 Y31.078
G1 F1800 X88.921 Y85.456 E291.51137
G0 F4320 X88.921 Y85.951
G1 F1800 X34.047 Y31.078 E295.46365
G0 F4320 X33.552 Y31.078
G1 F1800 X88.921 Y86.446 E299.45159
G0 F4320 X88.921 Y86.941
G1 F1800 X33.057 Y31.078 E303.47517
G0 F4320 X32.562 Y31.078
G1 F1800 X88.921 Y87.436 E307.53441
G0 F4320 X88.921 Y87.931
G1 F1800 X32.067 Y31.078 E311.6293
G0 F4320 X31.622 Y31.127
G1 F1800 X88.869 Y88.374 E315.75253
G0 F4320 X88.78 Y88.78
G1 F1800 X31.218 Y31.218 E319.89845
G0 F4320 X31.13 Y31.625
G1 F1800 X88.377 Y88.872 E324.02169
G0 F4320 X87.931 Y88.921
G1 F1800 X31.078 Y32.067 E328.11658
G0 F4320 X31.078 Y32.562
G1 F1800 X87.436 Y88.921 E332.17581
G0 F4320 X86.941 Y88.921
G1 F1800 X31.078 Y33.057 E336.1994
G0 F4320 X31.078 Y33.552
G1 F1800 X86.446 Y88.921 E340.18733
G0 F4320 X85.951 Y88.921
G1 F1800 X31.078 Y34.047 E344.13961
G0 F4320 X31.078 Y34.542
G1 F1800 X85.456 Y88.921 E348.05624
G0 F4320 X84.961 Y88.921
G1 F1800 X31.078 Y35.037 E351.93722
G0 F4320 X31.078 Y35.532
G1 F1800 X84.466 Y88.921 E355.78254
G0 F4320 X83.971 Y88.921
G1 F1800 X31.078 Y36.027 E359.59221
G0 F4320 X31.078 Y36.522
G1 F1800 X83.476 Y88.921 E363.36623
G0 F4320 X82.981 Y88.921
G1 F1800 X31.078 Y37.017 E367.10459
G0 F4320 X31.078 Y37.512
G1 F1800 X82.486 Y88.921 E370.80731
G0 F4320 X81.991 Y88.921
G1 F1800 X31.078 Y38.007 E374.47437
G0 F4320 X31.078 Y38.502
G1 F1800 X81.496 Y88.921 E378.10578
G0 F4320 X81.001 Y88.921
G1 F1800 X31.078 Y38.997 E381.70153
G0 F4320 X31.078 Y39.492
G1 F1800 X80.506 Y88.921 E385.26163
G0 F4320 X80.011 Y88.921
G1 F1800 X31.078 Y39.987 E388.78608
G0 F4320 X31.078 Y40.482
G1 F1800 X79.516 Y88.921 E392.27488
G0 F4320 X79.022 Y88.921
G1 F1800 X31.078 Y40.977 E395.72806
G0 F4320 X31.078 Y41.472
G1 F1800 X78.527 Y88.921 E399.14559
G0 F4320 X78.032 Y88.921
G1 F1800 X31.078 Y41.967 E402.52747
G0 F4320 X31.078 Y42.462
G1 F1800 X77.537 Y88.921 E405.87369
G0 F4320 X77.042 Y88.921
G1 F1800 X31.078 Y42.957 E409.18426
G0 F4320 X31.078 Y43.452
G1 F1800 X76.547 Y88.921 E412.45918
G0 F4320 X76.052 Y88.921
G1 F1800 X31.078 Y43.947 E415.69845
G0 F4320 X31.078 Y44.442
G1 F1800 X75.557 Y88.921 E418.90206
G0 F4320 X75.062 Y88.921
G1 F1800 X31.078 Y44.937 E422.07002
G0 F4320 X31.078 Y45.432
G1 F1800 X74.567 Y88.921 E425.20233
G0 F4320 X74.072 Y88.921
G1 F1800 X31.078 Y45.927 E428.29899
G0 F4320 X31.078 Y46.422
G1 F1800 X73.577 Y88.921 E431.35999
G0 F4320 X73.082 Y88.921
G1 F1800 X31.078 Y46.917 E434.38534
G0 F4320 X31.078 Y47.412
G1 F1800 X72.587 Y88.921 E437.37504
G0 F4320 X72.092 Y88.921
G1 F1800 X31.078 Y47.907 E440.32908
G0 F4320 X31.078 Y48.402
G1 F1800 X71.597 Y88.921 E443.24748
G0 F4320 X71.102 Y88.921
G1 F1800 X31.078 Y48.897 E446.13022
G0 F4320 X31.078 Y49.392
G1 F1800 X70.607 Y88.921 E448.97731
G0 F4320 X70.112 Y88.921
G1 F1800 X31.078 Y49.887 E451.78874
G0 F4320 X31.078 Y50.382
G1 F1800 X69.617 Y88.921 E454.56453
G0 F4320 X69.122 Y88.921
G1 F1800 X31.077 Y50.876 E457.30473
G0 F4320 X31.077 Y51.371
G1 F1800 X68.627 Y88.921 E460.00928
G0 F4320 X68.132 Y88.921
G1 F1800 X31.077 Y51.866 E462.67818
G0 F4320 X31.077 Y52.361
G1 F1800 X67.637 Y88.921 E465.31142
G0 F4320 X67.142 Y88.921
G1 F1800 X31.077 Y52.856 E467.90901
G0 F4320 X31.077 Y53.351
G1 F1800 X66.647 Y88.921 E470.47095
G0 F4320 X66.152 Y88.921
G1 F1800 X31.077 Y53.846 E472.99724
G0 F4320 X31.077 Y54.341
G1 F1800 X65.657 Y88.921 E475.48788
G0 F4320 X65.162 Y88.921
G1 F1800 X31.077 Y54.836 E477.94286
G0 F4320 X31.077 Y55.331
G1 F1800 X64.667 Y88.921 E480.36219
G0 F4320 X64.172 Y88.921
G1 F1800 X31.077 Y55.826 E482.74587
G0 F4320 X31.077 Y56.321
G1 F1800 X63.677 Y88.921 E485.09389
G0 F4320 X63.182 Y88.921
G1 F1800 X31.077 Y56.816 E487.40626
G0 F4320 X31.077 Y57.311
G1 F1800 X62.687 Y88.921 E489.68298
